usr/share/icons/biglinux-icons-material/symbolic/status/printer-error-symbolic.svg

<svg width="16" height="16.01" version="1.1" xmlns="http://www.w3.org/2000/svg">
 <path class="error" d="m12.5 9a3.5 3.5 0 1 0 0 7 3.5 3.5 0 0 0 0-7zm-0.5 1h1v3h-1zm0 4h1v1h-1z" fill="#ef2929"/>
 <g fill="#363636" stroke-linecap="round" stroke-linejoin="round" stroke-width="2" style="paint-order:stroke fill markers" aria-label="">
  <path d="m4 0v6h-3c-0.13541 0-0.26562 0.026042-0.39062 0.078125-0.11979 0.052087-0.22657 0.125-0.32031 0.21875-0.088543 0.08854-0.15885 0.19531-0.21094 0.32031-0.052083 0.11979-0.078125 0.2474-0.078125 0.38281v7h4v2h5.6855a4.5 4.5 0 0 1-0.92188-1h-3.7637v-4h3.2676a4.5 4.5 0 0 1 0.49609-1h-4.7637v3h-3v-6h14v1.7578a4.5 4.5 0 0 1 1 0.91406v-2.6719c0-0.13541-0.026038-0.26302-0.078125-0.38281-0.052087-0.125-0.125-0.23177-0.21875-0.32031-0.08854-0.09375-0.19531-0.16667-0.32031-0.21875-0.11979-0.052083-0.2474-0.078125-0.38281-0.078125h-3v-6h-8zm1 1h6v5h-6v-5zm-2.5 7c-0.13541 0-0.2526 0.049478-0.35156 0.14844s-0.14844 0.21615-0.14844 0.35156 0.049478 0.2526 0.14844 0.35156 0.21615 0.14844 0.35156 0.14844 0.2526-0.049478 0.35156-0.14844 0.14844-0.21615 0.14844-0.35156-0.049478-0.2526-0.14844-0.35156-0.21615-0.14844-0.35156-0.14844z" fill="#363636"/>
 </g>
</svg>

<svg xmlns="http://www.w3.org/2000/svg" width="16" height="16.01"><path fill="#ef2929" d="M12.5 9a3.5 3.5 0 1 0 0 7 3.5 3.5 0 0 0 0-7zm-.5 1h1v3h-1zm0 4h1v1h-1z" class="error"/><path fill="#dedede" stroke-linecap="round" stroke-linejoin="round" stroke-width="2" d="M4 0v6H1c-.135 0-.266.026-.39.078a1.03 1.03 0 0 0-.32.219.98.98 0 0 0-.212.32A.95.95 0 0 0 0 7v7h4v2h5.686a4.5 4.5 0 0 1-.922-1H5v-4h3.268a4.5 4.5 0 0 1 .496-1H4v3H1V7h14v1.758a4.5 4.5 0 0 1 1 .914V7a.95.95 0 0 0-.078-.383.923.923 0 0 0-.219-.32.922.922 0 0 0-.32-.219A.95.95 0 0 0 15 6h-3V0H4zm1 1h6v5H5V1zM2.5 8c-.135 0-.253.05-.352.148S2 8.365 2 8.5s.05.253.148.352S2.365 9 2.5 9s.253-.05.352-.148S3 8.635 3 8.5s-.05-.253-.148-.352S2.635 8 2.5 8z" aria-label="" style="paint-order:stroke fill markers"/></svg>
